austria/municipalities/20441.svg

<svg xmlns="http://www.w3.org/2000/svg" width="850" height="850" style="shape-rendering:geometricPrecision;text-rendering:geometricPrecision;image-rendering:optimizeQuality;fill-rule:evenodd;clip-rule:evenodd"><path style="opacity:1" fill="#c8c7c7" d="M837.5 17.5v-6h-826v4c-.951-1.419-1.284-3.085-1-5h828c.302 2.56-.032 4.893-1 7z"/><path style="opacity:1" fill="#262324" d="M837.5 17.5a103840.317 103840.317 0 0 1-31.5 454c-8.673 125.896-63.507 225.729-164.5 299.5-107.919 70.741-223.253 85.741-346 45-28.565-10.115-55.232-23.615-80-40.5-.473-1.406-1.473-2.073-3-2-.473-1.406-1.473-2.073-3-2a26.707 26.707 0 0 1-7-5c-.473-1.406-1.473-2.073-3-2a89.862 89.862 0 0 1-20-16c-.473-1.406-1.473-2.073-3-2-63.353-54.987-104.52-123.654-123.5-206a468.869 468.869 0 0 1-9-58 96118.408 96118.408 0 0 1-32.5-467v-4h826v6z"/><path style="opacity:1" fill="#126237" d="M30.5 29.5c262.833-1 525.833-1.333 789-1 .295 2.235-.039 4.235-1 6v-5h-788z"/><path style="opacity:1" fill="#00a54f" d="M30.5 29.5h788v5a311778.506 311778.506 0 0 0-29.5 421 9115.724 9115.724 0 0 1-64-111c-4.026-4.131-7.693-3.798-11 1a4000.781 4000.781 0 0 1-60 104 5248.875 5248.875 0 0 1-61-106c-2.243-1.782-4.743-2.282-7.5-1.5A5719.277 5719.277 0 0 0 523 449.5l-92-178c-2.618-4.322-5.952-4.988-10-2l-94 180A5719.277 5719.277 0 0 0 264.5 342c-2.847-.944-5.347-.444-7.5 1.5l-61 106a3848.829 3848.829 0 0 1-59-102c-2.841-6.497-6.841-7.497-12-3a9115.724 9115.724 0 0 1-64 111 49235.18 49235.18 0 0 1-30.5-426z"/><path style="opacity:1" fill="#fefefe" d="M424.5 274.5c.876-.131 1.543.202 2 1a24503.656 24503.656 0 0 0 96.5 186A18673.313 18673.313 0 0 1 587.5 349c1.613-.089 2.78.745 3.5 2.5l63 110 65.5-113a4330.198 4330.198 0 0 1 67.5 116c-5.167 120.52-55.667 216.687-151.5 288.5-102.596 69.285-212.93 84.951-331 47C179.583 752.41 101.416 663.576 70 533.5a333.4 333.4 0 0 1-8-67 10423.197 10423.197 0 0 1 68-119l66 114a11969.323 11969.323 0 0 1 65.5-113 4694.155 4694.155 0 0 1 65.5 113 12433.726 12433.726 0 0 0 97.5-187z"/><path style="opacity:1" fill="#908e8e" d="M176.5 746.5c1.527-.073 2.527.594 3 2-1.527.073-2.527-.594-3-2z"/><path style="opacity:1" fill="#8d8b8c" d="M199.5 764.5c1.527-.073 2.527.594 3 2-1.527.073-2.527-.594-3-2z"/><path style="opacity:1" fill="#918f90" d="M209.5 771.5c1.527-.073 2.527.594 3 2-1.527.073-2.527-.594-3-2zM212.5 773.5c1.527-.073 2.527.594 3 2-1.527.073-2.527-.594-3-2z"/></svg>

<?xml version="1.0" encoding="UTF-8"?>
<!DOCTYPE svg PUBLIC "-//W3C//DTD SVG 1.1//EN" "http://www.w3.org/Graphics/SVG/1.1/DTD/svg11.dtd">
<svg xmlns="http://www.w3.org/2000/svg" version="1.1" width="850px" height="850px" style="shape-rendering:geometricPrecision; text-rendering:geometricPrecision; image-rendering:optimizeQuality; fill-rule:evenodd; clip-rule:evenodd" xmlns:xlink="http://www.w3.org/1999/xlink">
<g><path style="opacity:1" fill="#c8c7c7" d="M 837.5,17.5 C 837.5,15.5 837.5,13.5 837.5,11.5C 562.167,11.5 286.833,11.5 11.5,11.5C 11.5,12.8333 11.5,14.1667 11.5,15.5C 10.5489,14.0813 10.2155,12.4147 10.5,10.5C 286.5,10.5 562.5,10.5 838.5,10.5C 838.802,13.0593 838.468,15.3926 837.5,17.5 Z"/></g>
<g><path style="opacity:1" fill="#262324" d="M 837.5,17.5 C 827.332,168.851 816.832,320.184 806,471.5C 797.327,597.396 742.493,697.229 641.5,771C 533.581,841.741 418.247,856.741 295.5,816C 266.935,805.885 240.268,792.385 215.5,775.5C 215.027,774.094 214.027,773.427 212.5,773.5C 212.027,772.094 211.027,771.427 209.5,771.5C 206.865,770.189 204.531,768.522 202.5,766.5C 202.027,765.094 201.027,764.427 199.5,764.5C 192.064,760.117 185.397,754.784 179.5,748.5C 179.027,747.094 178.027,746.427 176.5,746.5C 113.147,691.513 71.98,622.846 53,540.5C 48.7888,521.355 45.7888,502.022 44,482.5C 32.7872,326.854 21.9539,171.188 11.5,15.5C 11.5,14.1667 11.5,12.8333 11.5,11.5C 286.833,11.5 562.167,11.5 837.5,11.5C 837.5,13.5 837.5,15.5 837.5,17.5 Z"/></g>
<g><path style="opacity:1" fill="#126237" d="M 30.5,29.5 C 293.333,28.5002 556.333,28.1669 819.5,28.5C 819.795,30.7354 819.461,32.7354 818.5,34.5C 818.5,32.8333 818.5,31.1667 818.5,29.5C 555.833,29.5 293.167,29.5 30.5,29.5 Z"/></g>
<g><path style="opacity:1" fill="#00a54f" d="M 30.5,29.5 C 293.167,29.5 555.833,29.5 818.5,29.5C 818.5,31.1667 818.5,32.8333 818.5,34.5C 808.572,174.82 798.739,315.153 789,455.5C 767.414,418.663 746.081,381.663 725,344.5C 720.974,340.369 717.307,340.702 714,345.5C 694.505,380.493 674.505,415.16 654,449.5C 633.267,414.425 612.934,379.091 593,343.5C 590.757,341.718 588.257,341.218 585.5,342C 564.288,377.588 543.455,413.421 523,449.5C 492.333,390.167 461.667,330.833 431,271.5C 428.382,267.178 425.048,266.512 421,269.5C 389.667,329.5 358.333,389.5 327,449.5C 306.545,413.421 285.712,377.588 264.5,342C 261.653,341.056 259.153,341.556 257,343.5C 236.667,378.833 216.333,414.167 196,449.5C 175.828,415.827 156.161,381.827 137,347.5C 134.159,341.003 130.159,340.003 125,344.5C 103.919,381.663 82.586,418.663 61,455.5C 50.2201,313.581 40.0534,171.581 30.5,29.5 Z"/></g>
<g><path style="opacity:1" fill="#fefefe" d="M 424.5,274.5 C 425.376,274.369 426.043,274.702 426.5,275.5C 458.412,337.657 490.578,399.657 523,461.5C 544.374,423.918 565.874,386.418 587.5,349C 589.113,348.911 590.28,349.745 591,351.5C 612,388.167 633,424.833 654,461.5C 675.833,423.833 697.667,386.167 719.5,348.5C 742.563,386.756 765.063,425.422 787,464.5C 781.833,585.02 731.333,681.187 635.5,753C 532.904,822.285 422.57,837.951 304.5,800C 179.583,752.41 101.416,663.576 70,533.5C 65.0645,511.412 62.3979,489.079 62,466.5C 84.4138,426.671 107.08,387.004 130,347.5C 152,385.5 174,423.5 196,461.5C 217.634,423.704 239.467,386.037 261.5,348.5C 283.823,385.804 305.657,423.471 327,461.5C 360.036,399.428 392.536,337.095 424.5,274.5 Z"/></g>
<g><path style="opacity:1" fill="#908e8e" d="M 176.5,746.5 C 178.027,746.427 179.027,747.094 179.5,748.5C 177.973,748.573 176.973,747.906 176.5,746.5 Z"/></g>
<g><path style="opacity:1" fill="#8d8b8c" d="M 199.5,764.5 C 201.027,764.427 202.027,765.094 202.5,766.5C 200.973,766.573 199.973,765.906 199.5,764.5 Z"/></g>
<g><path style="opacity:1" fill="#918f90" d="M 209.5,771.5 C 211.027,771.427 212.027,772.094 212.5,773.5C 210.973,773.573 209.973,772.906 209.5,771.5 Z"/></g>
<g><path style="opacity:1" fill="#918f90" d="M 212.5,773.5 C 214.027,773.427 215.027,774.094 215.5,775.5C 213.973,775.573 212.973,774.906 212.5,773.5 Z"/></g>
</svg>
